outputs/icons/device/chain_sharp.svg

<svg xmlns="http://www.w3.org/2000/svg" width="1200" height="1200" fill="none"><g fill="#000" clip-path="url(#a)"><path d="M706.25 756.25H503.125a203.37 203.37 0 0 1-143.563-59.56A203.36 203.36 0 0 1 300 553.125v-250A203.34 203.34 0 0 1 503.125 100h156.25a203.35 203.35 0 0 1 143.56 59.563A203.35 203.35 0 0 1 862.5 303.125V475l-93.75-93.75v-78.125a109.49 109.49 0 0 0-32.07-77.305 109.5 109.5 0 0 0-77.305-32.07h-156.25A109.495 109.495 0 0 0 393.75 303.125v250A109.49 109.49 0 0 0 503.125 662.5H706.25z"/><path d="M659.375 1100h-156.25a203.37 203.37 0 0 1-143.563-59.56A203.36 203.36 0 0 1 300 896.875V725l93.75 93.75v78.125a109.49 109.49 0 0 0 109.375 109.375h156.25c29-.03 56.8-11.565 77.305-32.07a109.49 109.49 0 0 0 32.07-77.305v-250c-.03-29-11.565-56.8-32.07-77.305a109.49 109.49 0 0 0-77.305-32.07H456.25v-93.75h203.125A203.36 203.36 0 0 1 862.5 646.875v250a203.36 203.36 0 0 1-59.57 143.555A203.36 203.36 0 0 1 659.375 1100"/></g><defs><clipPath id="a"><path fill="#fff" d="M0 0h1200v1200H0z"/></clipPath></defs></svg>

<svg width="1200" height="1200" viewBox="0 0 1200 1200" fill="none" xmlns="http://www.w3.org/2000/svg"><g clip-path="url(#clip0_833_2351)"><path d="M706.25 756.25H503.125C449.272 756.19 397.642 734.765 359.562 696.69C321.482 658.61 300.062 606.98 300 553.125V303.125C300.057 249.27 321.475 197.637 359.557 159.556C397.637 121.475 449.27 100.057 503.125 100H659.375C713.23 100.062 764.855 121.483 802.935 159.563C841.015 197.643 862.44 249.272 862.5 303.125V475L768.75 381.25V303.125C768.72 274.126 757.185 246.325 736.68 225.82C716.175 205.315 688.375 193.781 659.375 193.75H503.125C474.127 193.781 446.324 205.315 425.819 225.82C405.314 246.325 393.781 274.126 393.75 303.125V553.125C393.781 582.125 405.314 609.925 425.819 630.43C446.324 650.935 474.127 662.47 503.125 662.5H706.25V756.25Z" fill="black"/><path d="M659.375 1100H503.125C449.272 1099.94 397.642 1078.515 359.562 1040.44C321.482 1002.36 300.062 950.73 300 896.875V725L393.75 818.75V896.875C393.781 925.875 405.314 953.675 425.819 974.18C446.324 994.685 474.127 1006.22 503.125 1006.25H659.375C688.375 1006.22 716.175 994.685 736.68 974.18C757.185 953.675 768.72 925.875 768.75 896.875V646.875C768.72 617.875 757.185 590.075 736.68 569.57C716.175 549.065 688.375 537.53 659.375 537.5H456.25V443.75H659.375C713.23 443.812 764.855 465.233 802.935 503.31C841.015 541.39 862.44 593.02 862.5 646.875V896.875C862.435 950.725 841.01 1002.355 802.93 1040.43C764.855 1078.51 713.225 1099.935 659.375 1100Z" fill="black"/></g><defs><clipPath id="clip0_833_2351"><path width="24" fill="white" d="M0 0H1200V1200H0V0z"/></clipPath></defs></svg>
